packages/ffe-icons/icons/filled/sm/vacuum.svg

<svg xmlns="http://www.w3.org/2000/svg" height="20" viewBox="0 -960 960 960" width="20"><path d="M168.045-106.001q-45.814 0-77.93-32.07-32.114-32.07-32.114-77.884t32.07-77.929q32.07-32.115 77.884-32.115t77.929 32.07q32.115 32.07 32.115 77.884t-32.07 77.929q-32.07 32.115-77.884 32.115ZM168-157.999q24.246 0 41.124-16.877 16.877-16.878 16.877-41.124 0-24.246-16.877-41.124-16.878-16.877-41.124-16.877-24.246 0-41.124 16.877-16.877 16.878-16.877 41.124 0 24.246 16.877 41.124 16.878 16.877 41.124 16.877Zm189.23 51.998q-14.961 0-22.442-12.769t-.635-26.23q7.379-15.803 11.613-34.202 4.233-18.399 4.233-36.798 0-75.53-53.325-128.764-53.324-53.235-128.982-53.235-6.48 0-12.192.871-5.712.872-12.192 1.559-15.769 1.416-26.538-6.93t-10.769-23.192v-124.001q0-26.527 18.89-45.417t45.417-18.89h67.693v-131.954q0-64.862 45.457-110.454 45.458-45.592 110.883-45.592 47.582 0 86.24 25.773 38.657 25.774 56.803 69.072l277.077 649.155H876q11.05 0 18.524 7.418 7.475 7.418 7.475 18.384 0 10.966-7.475 18.581-7.474 7.615-18.524 7.615H660q-11.05 0-18.524-7.418-7.475-7.418-7.475-18.384 0-10.966 7.475-18.581 7.474-7.615 18.524-7.615h98.386L488.847-786.846q-12.178-28.521-37.951-45.838-25.774-17.317-56.896-17.317-43 0-73.501 30.383-30.5 30.383-30.5 73.218v132.401h78.615q56.154 0 95.077 38.923 38.923 38.922 38.923 95.076v309.692q0 26.527-18.891 45.417-18.89 18.89-45.417 18.89H357.23Z"/></svg>

<svg xmlns="http://www.w3.org/2000/svg" height="20" viewBox="0 -960 960 960" width="20"><path d="M168.05-106q-45.82 0-77.93-32.07Q58-170.14 58-215.95q0-45.82 32.07-77.93Q122.14-326 167.95-326q45.82 0 77.93 32.07Q278-261.86 278-216.05q0 45.82-32.07 77.93Q213.86-106 168.05-106Zm-.05-52q24.25 0 41.12-16.88Q226-191.75 226-216q0-24.25-16.88-41.12Q192.25-274 168-274q-24.25 0-41.12 16.88Q110-240.25 110-216q0 24.25 16.88 41.12Q143.75-158 168-158Zm189.23 52q-14.96 0-22.44-12.77t-.64-26.23q7.38-15.8 11.62-34.2Q350-197.6 350-216q0-75.53-53.33-128.76Q243.35-398 167.69-398q-6.48 0-12.19.87-5.71.87-12.19 1.56-15.77 1.42-26.54-6.93T106-425.69v-124q0-26.53 18.89-45.42T170.31-614H238v-131.95q0-64.86 45.46-110.46Q328.92-902 394.34-902q47.58 0 86.24 25.77 38.66 25.78 56.8 69.08L814.46-158H876q11.05 0 18.52 7.42 7.48 7.42 7.48 18.38 0 10.97-7.48 18.58Q887.05-106 876-106H660q-11.05 0-18.52-7.42-7.48-7.42-7.48-18.38 0-10.97 7.48-18.58Q648.95-158 660-158h98.39L488.85-786.85q-12.18-28.52-37.95-45.83Q425.12-850 394-850q-43 0-73.5 30.38Q290-789.23 290-746.4V-614h78.61q56.16 0 95.08 38.92 38.92 38.93 38.92 95.08v309.69q0 26.53-18.89 45.42T438.31-106h-81.08Z"/></svg>
